images/zhuyin/01.svg

<svg width="50" height="50" viewBox="0 0 50 50" fill="none" xmlns="http://www.w3.org/2000/svg">
<path d="M20.2188 14.6562C20.4375 14.6562 20.7969 14.7812 21.2969 15.0312C21.8906 15.3438 22.1875 15.5938 22.1875 15.7812C22.1875 15.9375 21.9844 16.3281 21.5781 16.9531C20.1719 19.1875 19.4688 20.5469 19.4688 21.0312C19.4688 21.2344 19.5625 21.3359 19.75 21.3359C19.9219 21.3359 21.6328 21.0547 24.8828 20.4922C28.2578 20.0078 30.0859 19.6484 30.3672 19.4141C30.6484 19.2422 30.8906 19.1562 31.0938 19.1562C31.2656 19.1562 31.6406 19.4375 32.2188 20C32.9688 20.7031 33.3438 21.2109 33.3438 21.5234C33.3438 21.5859 33.2266 21.7656 32.9922 22.0625C32.7422 22.5312 32.4062 23.6094 31.9844 25.2969C31.1406 28.4844 30.125 30.9219 28.9375 32.6094C27.9062 34.1406 26.9375 34.9062 26.0312 34.9062C25.7031 34.9062 25.4141 34.6641 25.1641 34.1797C24.7891 33.5234 24.1562 32.7891 23.2656 31.9766C23.1719 31.8984 23.125 31.8438 23.125 31.8125C23.125 31.75 23.1562 31.7188 23.2188 31.7188C23.25 31.7188 23.6094 31.8672 24.2969 32.1641C25.0312 32.4922 25.5469 32.6562 25.8438 32.6562C26.7188 32.6562 27.75 31.3828 28.9375 28.8359C30.1875 26.1016 30.8125 23.6641 30.8125 21.5234C30.8125 21.0703 30.625 20.8438 30.25 20.8438C29.7344 20.8438 27.9609 21.1016 24.9297 21.6172C22.2266 22.1016 20.2344 22.5625 18.9531 23C18.3594 23.2656 18 23.3984 17.875 23.3984C17.6562 23.3984 17.3672 23.1797 17.0078 22.7422C16.7109 22.3516 16.5625 22.0938 16.5625 21.9688C16.5625 21.7188 16.8125 21.2812 17.3125 20.6562C19.1875 17.6562 20.0625 15.7812 19.9375 15.0312C19.9375 14.7812 20.0312 14.6562 20.2188 14.6562Z" fill="#333333"/>
<path d="M21.2969 15.0312L21.5298 14.5887L21.5205 14.584L21.2969 15.0312ZM21.5781 16.9531L21.1589 16.6806L21.155 16.6868L21.5781 16.9531ZM24.8828 20.4922L24.8118 19.9973L24.8046 19.9983L24.7975 19.9995L24.8828 20.4922ZM30.3672 19.4141L30.1065 18.9874L30.0752 19.0065L30.0471 19.03L30.3672 19.4141ZM32.2188 20L31.87 20.3584L31.8768 20.3648L32.2188 20ZM32.9922 22.0625L32.5997 21.7527L32.572 21.7878L32.551 21.8272L32.9922 22.0625ZM31.9844 25.2969L32.4678 25.4248L32.4694 25.4181L31.9844 25.2969ZM28.9375 32.6094L28.5285 32.3216L28.5228 32.3301L28.9375 32.6094ZM25.1641 34.1797L25.6084 33.9504L25.6035 33.9409L25.5982 33.9316L25.1641 34.1797ZM23.2656 31.9766L23.6026 31.6072L23.5943 31.5996L23.5857 31.5925L23.2656 31.9766ZM24.2969 32.1641L24.5009 31.7075L24.4951 31.705L24.2969 32.1641ZM28.9375 28.8359L29.3907 29.0472L29.3922 29.0438L28.9375 28.8359ZM24.9297 21.6172L24.8458 21.1242L24.8415 21.125L24.9297 21.6172ZM18.9531 23L18.7916 22.5268L18.7699 22.5342L18.7489 22.5436L18.9531 23ZM17.0078 22.7422L16.6097 23.0447L16.6155 23.0523L16.6214 23.0596L17.0078 22.7422ZM17.3125 20.6562L17.7029 20.9686L17.7211 20.9459L17.7365 20.9212L17.3125 20.6562ZM19.9375 15.0312H19.4375V15.0726L19.4443 15.1134L19.9375 15.0312ZM20.2188 15.1562C20.2456 15.1562 20.3282 15.1666 20.4881 15.2222C20.6405 15.2753 20.8345 15.3591 21.0733 15.4785L21.5205 14.584C21.2593 14.4534 21.0236 14.3497 20.8166 14.2778C20.6171 14.2084 20.4107 14.1562 20.2188 14.1562V15.1562ZM21.064 15.4737C21.3485 15.6234 21.5347 15.7445 21.6428 15.8356C21.6684 15.8572 21.6869 15.8748 21.6998 15.8883C21.7061 15.895 21.7106 15.9002 21.7137 15.904C21.7152 15.9058 21.7163 15.9072 21.7171 15.9082C21.7178 15.9092 21.7181 15.9097 21.7181 15.9097C21.7181 15.9096 21.7177 15.9091 21.717 15.9079C21.7163 15.9068 21.7153 15.905 21.714 15.9026C21.7115 15.8978 21.7078 15.8901 21.704 15.8796C21.6962 15.8583 21.6875 15.8246 21.6875 15.7812H22.6875C22.6875 15.601 22.6167 15.453 22.5456 15.3482C22.4738 15.2423 22.3814 15.1503 22.2869 15.0707C22.0982 14.9117 21.839 14.7516 21.5297 14.5888L21.064 15.4737ZM21.6875 15.7812C21.6875 15.7297 21.7001 15.716 21.6807 15.7683C21.6651 15.8102 21.6371 15.8732 21.5915 15.9607C21.5008 16.1353 21.3583 16.3738 21.1589 16.6806L21.9973 17.2256C22.2042 16.9075 22.3664 16.6382 22.4788 16.4221C22.5348 16.3143 22.5829 16.2113 22.6181 16.1165C22.6495 16.0321 22.6875 15.9109 22.6875 15.7812H21.6875ZM21.155 16.6868C20.4489 17.8087 19.913 18.7208 19.552 19.4187C19.3717 19.7673 19.2306 20.0709 19.1334 20.3257C19.0416 20.5666 18.9688 20.814 18.9688 21.0312H19.9688C19.9688 21.0063 19.9838 20.9022 20.0678 20.6821C20.1464 20.476 20.2689 20.2093 20.4402 19.8781C20.7823 19.2167 21.3011 18.3319 22.0013 17.2195L21.155 16.6868ZM18.9688 21.0312C18.9688 21.2004 19.0069 21.4205 19.1717 21.5989C19.3434 21.7849 19.5684 21.8359 19.75 21.8359V20.8359C19.7441 20.8359 19.8285 20.8362 19.9065 20.9206C19.9774 20.9975 19.9688 21.0652 19.9688 21.0312H18.9688ZM19.75 21.8359C19.8088 21.8359 19.8869 21.8267 19.9493 21.8188C20.0243 21.8093 20.1221 21.7955 20.2413 21.7777C20.4803 21.742 20.8147 21.6888 21.2432 21.6184C22.1008 21.4774 23.3427 21.2662 24.9681 20.9849L24.7975 19.9995C23.1729 20.2807 21.9344 20.4913 21.081 20.6316C20.6541 20.7018 20.3253 20.7541 20.0936 20.7887C19.9775 20.806 19.8881 20.8186 19.8239 20.8267C19.7471 20.8364 19.7342 20.8359 19.75 20.8359V21.8359ZM24.9538 20.9871C26.6441 20.7445 27.9549 20.5322 28.8816 20.35C29.3441 20.2591 29.7193 20.1741 30.0017 20.0946C30.1426 20.0549 30.2683 20.0144 30.374 19.9724C30.4688 19.9347 30.5891 19.88 30.6873 19.7982L30.0471 19.03C30.075 19.0067 30.0766 19.0145 30.0045 19.0432C29.9431 19.0676 29.8535 19.0974 29.7307 19.132C29.4858 19.2009 29.1403 19.28 28.6887 19.3688C27.7873 19.546 26.4965 19.7555 24.8118 19.9973L24.9538 20.9871ZM30.6279 19.8407C30.8747 19.6899 31.0233 19.6562 31.0938 19.6562V18.6562C30.7579 18.6562 30.4222 18.7945 30.1065 18.9874L30.6279 19.8407ZM31.0938 19.6562C31.0169 19.6562 30.9869 19.6304 31.0321 19.6536C31.0661 19.6711 31.1223 19.706 31.2039 19.7672C31.3664 19.8891 31.5871 20.083 31.8701 20.3584L32.5674 19.6416C32.2723 19.3545 32.0164 19.1265 31.8039 18.9672C31.698 18.8878 31.5921 18.8172 31.4894 18.7643C31.3979 18.7173 31.2565 18.6562 31.0938 18.6562V19.6562ZM31.8768 20.3648C32.2416 20.7068 32.4984 20.986 32.6603 21.2052C32.8381 21.446 32.8438 21.5386 32.8438 21.5234H33.8438C33.8438 21.1958 33.6619 20.8782 33.4647 20.6112C33.2516 20.3226 32.9459 19.9963 32.5607 19.6352L31.8768 20.3648ZM32.8438 21.5234C32.8438 21.4597 32.8574 21.4144 32.8619 21.4003C32.865 21.3907 32.8677 21.3839 32.8692 21.3802C32.87 21.3782 32.8707 21.3767 32.8711 21.3758C32.8713 21.3754 32.8714 21.3751 32.8715 21.3748C32.8716 21.3746 32.8717 21.3745 32.8717 21.3745C32.8717 21.3745 32.8717 21.3746 32.8716 21.3748C32.8715 21.375 32.8713 21.3753 32.8711 21.3757C32.8707 21.3764 32.8702 21.3775 32.8694 21.3789C32.8678 21.3818 32.8656 21.3858 32.8626 21.3909C32.8566 21.4013 32.8482 21.4148 32.8371 21.4319C32.7906 21.5032 32.7135 21.6086 32.5997 21.7527L33.3846 22.3723C33.5053 22.2195 33.6039 22.0867 33.6747 21.9782C33.7096 21.9246 33.7442 21.8672 33.7719 21.8101C33.7899 21.7727 33.8438 21.6612 33.8438 21.5234H32.8438ZM32.551 21.8272C32.2666 22.3605 31.9176 23.5024 31.4993 25.1756L32.4694 25.4181C32.8949 23.7164 33.2178 22.702 33.4334 22.2978L32.551 21.8272ZM31.501 25.1689C30.6645 28.3292 29.6678 30.7028 28.5286 32.3216L29.3464 32.8971C30.5822 31.141 31.6168 28.6395 32.4677 25.4248L31.501 25.1689ZM28.5228 32.3301C28.0232 33.0719 27.5566 33.6006 27.1275 33.9398C26.6996 34.2779 26.3372 34.4062 26.0312 34.4062V35.4062C26.6316 35.4062 27.2066 35.1518 27.7475 34.7243C28.2872 34.2978 28.8206 33.6781 29.3522 32.8887L28.5228 32.3301ZM26.0312 34.4062C25.9926 34.4062 25.8328 34.3851 25.6084 33.9504L24.7198 34.409C24.9954 34.943 25.4136 35.4062 26.0312 35.4062V34.4062ZM25.5982 33.9316C25.1866 33.2114 24.5117 32.4365 23.6026 31.6072L22.9286 32.3459C23.8008 33.1416 24.3915 33.8355 24.7299 34.4278L25.5982 33.9316ZM23.5857 31.5925C23.5478 31.5608 23.5369 31.5481 23.5398 31.5516C23.5412 31.5532 23.5561 31.5703 23.5727 31.6009C23.5815 31.617 23.5936 31.6419 23.604 31.6748C23.6143 31.7074 23.625 31.7546 23.625 31.8125H22.625C22.625 31.9384 22.6695 32.0332 22.6948 32.0798C22.7232 32.1318 22.7557 32.1733 22.7805 32.2023C22.8303 32.2605 22.8897 32.3142 22.9455 32.3607L23.5857 31.5925ZM23.625 31.8125C23.625 31.8583 23.6132 31.9845 23.502 32.0957C23.3908 32.207 23.2646 32.2188 23.2188 32.2188V31.2188C23.1104 31.2188 22.9373 31.2462 22.7949 31.3886C22.6524 31.5311 22.625 31.7042 22.625 31.8125H23.625ZM23.2188 32.2188C23.1769 32.2188 23.1451 32.2133 23.1344 32.2113C23.1201 32.2088 23.1093 32.2061 23.1041 32.2048C23.0938 32.2021 23.0881 32.2002 23.0902 32.2009C23.0935 32.2019 23.1044 32.2057 23.1261 32.214C23.1682 32.23 23.2323 32.2557 23.3208 32.2922C23.4968 32.3649 23.7556 32.4749 24.0987 32.6231L24.4951 31.705C24.1507 31.5563 23.886 31.4437 23.7026 31.3679C23.6114 31.3303 23.5369 31.3003 23.4813 31.2792C23.4542 31.2689 23.4265 31.2588 23.4015 31.2506C23.3894 31.2466 23.3721 31.2412 23.3528 31.2362C23.3482 31.235 23.2903 31.2188 23.2188 31.2188V32.2188ZM24.0929 32.6206C24.4698 32.789 24.8008 32.92 25.0828 33.0097C25.3563 33.0967 25.6178 33.1562 25.8438 33.1562V32.1562C25.7728 32.1562 25.6281 32.1338 25.386 32.0567C25.1523 31.9824 24.8583 31.8673 24.5008 31.7076L24.0929 32.6206ZM25.8438 33.1562C26.522 33.1562 27.1282 32.675 27.662 32.0158C28.2152 31.3328 28.7901 30.3354 29.3907 29.0472L28.4843 28.6246C27.8974 29.8834 27.363 30.7961 26.8849 31.3865C26.3874 32.0007 26.0405 32.1562 25.8438 32.1562V33.1562ZM29.3922 29.0438C30.6608 26.2688 31.3125 23.7587 31.3125 21.5234H30.3125C30.3125 23.5694 29.7142 25.9343 28.4828 28.6281L29.3922 29.0438ZM31.3125 21.5234C31.3125 21.2404 31.2559 20.9351 31.0571 20.6949C30.8433 20.4365 30.5421 20.3438 30.25 20.3438V21.3438C30.2944 21.3438 30.3106 21.3505 30.3093 21.35C30.3049 21.3483 30.2945 21.3419 30.2867 21.3325C30.2805 21.325 30.287 21.3289 30.2953 21.359C30.304 21.3904 30.3125 21.443 30.3125 21.5234H31.3125ZM30.25 20.3438C29.9488 20.3438 29.3381 20.4148 28.4613 20.5423C27.5688 20.6721 26.3631 20.8662 24.8458 21.1243L25.0135 22.1101C26.5276 21.8526 27.7242 21.66 28.6051 21.5319C29.5018 21.4016 30.0356 21.3438 30.25 21.3438V20.3438ZM24.8415 21.125C22.1333 21.6103 20.1103 22.0765 18.7916 22.5268L19.1147 23.4732C20.3584 23.0485 22.3198 22.5928 25.0179 22.1093L24.8415 21.125ZM18.7489 22.5436C18.4563 22.6745 18.2295 22.769 18.065 22.8298C17.9824 22.8603 17.922 22.88 17.8805 22.8913C17.8289 22.9055 17.8363 22.8984 17.875 22.8984V23.8984C17.9762 23.8984 18.0754 23.8748 18.1449 23.8557C18.2245 23.8339 18.3145 23.8037 18.4116 23.7678C18.6064 23.6958 18.8562 23.5911 19.1573 23.4564L18.7489 22.5436ZM17.875 22.8984C17.9256 22.8984 17.9057 22.9188 17.7959 22.8357C17.695 22.7593 17.5612 22.6281 17.3942 22.4248L16.6214 23.0596C16.8138 23.2937 17.0042 23.4907 17.1924 23.6331C17.3717 23.7687 17.6057 23.8984 17.875 23.8984V22.8984ZM17.4059 22.4396C17.2632 22.2519 17.1662 22.1089 17.1071 22.0064C17.0776 21.9551 17.0628 21.9228 17.0565 21.9066C17.0478 21.8842 17.0625 21.9111 17.0625 21.9688H16.0625C16.0625 22.0889 16.0957 22.1949 16.1242 22.2682C16.155 22.3477 16.1958 22.4277 16.2405 22.5053C16.3299 22.6606 16.4555 22.8418 16.6097 23.0447L17.4059 22.4396ZM17.0625 21.9688C17.0625 21.9819 17.0667 21.9067 17.1841 21.7012C17.291 21.5141 17.4609 21.2711 17.7029 20.9686L16.9221 20.3439C16.6641 20.6664 16.459 20.9547 16.3159 21.2051C16.1833 21.437 16.0625 21.7056 16.0625 21.9688H17.0625ZM17.7365 20.9212C18.6784 19.4142 19.3781 18.1758 19.8281 17.2114C20.0529 16.7296 20.2208 16.3049 20.3245 15.942C20.4249 15.5906 20.4803 15.2468 20.4307 14.9491L19.4443 15.1134C19.4572 15.1907 19.4501 15.3625 19.363 15.6673C19.2792 15.9607 19.1346 16.3329 18.9219 16.7886C18.4969 17.6992 17.8216 18.8983 16.8885 20.3913L17.7365 20.9212ZM20.4375 15.0312C20.4375 14.9984 20.4407 14.9861 20.4401 14.9885C20.4394 14.9914 20.4326 15.0169 20.4078 15.05C20.3809 15.0859 20.3428 15.117 20.2988 15.1366C20.2576 15.1549 20.2269 15.1562 20.2188 15.1562V14.1562C20.003 14.1562 19.7685 14.2358 19.6078 14.45C19.4674 14.6372 19.4375 14.8582 19.4375 15.0312H20.4375Z" fill="#333333"/>
</svg>

<svg xmlns="http://www.w3.org/2000/svg" width="50" height="50" fill="none"><path fill="#333" d="M20.219 14.656c.218 0 .578.125 1.078.375.594.313.89.563.89.75 0 .156-.203.547-.609 1.172-1.406 2.235-2.11 3.594-2.11 4.078 0 .203.095.305.282.305.172 0 1.883-.281 5.133-.844 3.375-.484 5.203-.844 5.484-1.078.281-.172.524-.258.727-.258.172 0 .547.282 1.125.844.75.703 1.125 1.21 1.125 1.523 0 .063-.117.243-.352.54-.25.468-.586 1.546-1.008 3.234-.843 3.187-1.859 5.625-3.047 7.312-1.03 1.532-2 2.297-2.906 2.297-.328 0-.617-.242-.867-.726-.375-.657-1.008-1.39-1.898-2.203-.094-.079-.141-.133-.141-.165 0-.062.031-.093.094-.093.031 0 .39.148 1.078.445.734.328 1.25.492 1.547.492.875 0 1.906-1.273 3.093-3.82 1.25-2.734 1.875-5.172 1.875-7.313 0-.453-.187-.68-.562-.68-.516 0-2.29.259-5.32.774-2.703.485-4.696.945-5.977 1.383-.594.266-.953.398-1.078.398-.219 0-.508-.218-.867-.656-.297-.39-.445-.648-.445-.773 0-.25.25-.688.75-1.313 1.875-3 2.75-4.875 2.625-5.625 0-.25.093-.375.28-.375Z"/><path fill="#333" d="m21.297 15.031.233-.442-.01-.005-.223.447Zm.281 1.922-.42-.272-.003.006.423.266Zm3.305 3.54-.071-.496-.007.001-.008.002.086.492Zm5.484-1.079-.26-.427-.032.02-.028.023.32.384ZM32.22 20l-.349.358.007.007.342-.365Zm.773 2.063-.392-.31-.028.035-.021.04.441.235Zm-1.008 3.234.484.128.001-.007-.485-.121Zm-3.047 7.312-.409-.287-.005.008.415.28Zm-3.773 1.57.444-.229-.005-.01-.005-.008-.434.248Zm-1.898-2.202.337-.37-.009-.007-.008-.008-.32.385Zm1.03.187.205-.457-.006-.002-.198.46Zm4.642-3.328.453.211.001-.003-.454-.208Zm-4.008-7.219-.084-.493-.005.001.089.492ZM18.953 23l-.161-.473-.022.007-.021.01.204.456Zm-1.945-.258-.398.303.006.007.005.008.387-.318Zm.305-2.086.39.313.018-.023.015-.025-.424-.265Zm2.625-5.625h-.5v.042l.006.04.494-.082Zm.28.125c.028 0 .11.01.27.066.152.053.346.137.585.257l.447-.895a6.073 6.073 0 0 0-.703-.306c-.2-.07-.406-.122-.598-.122v1Zm.846.318c.285.15.47.27.579.362a.736.736 0 0 1 .07.068l.004.004.001.002-.001-.002a.288.288 0 0 1-.03-.127h1c0-.18-.07-.328-.141-.433a1.396 1.396 0 0 0-.26-.277 4.342 4.342 0 0 0-.756-.482l-.466.885Zm.623.307c0-.051.013-.065-.006-.013a1.799 1.799 0 0 1-.09.193c-.09.174-.233.413-.432.72l.838.545a10.1 10.1 0 0 0 .482-.804c.056-.108.104-.21.14-.306a.98.98 0 0 0 .069-.335h-1Zm-.532.906c-.706 1.122-1.242 2.034-1.603 2.732-.18.348-.321.652-.419.907-.091.24-.164.488-.164.705h1c0-.025.015-.129.099-.349.078-.206.2-.473.372-.804.342-.661.861-1.546 1.561-2.659l-.846-.532Zm-2.186 4.344c0 .17.038.39.203.568a.77.77 0 0 0 .578.237v-1c-.006 0 .078 0 .157.085.07.076.062.144.062.11h-1Zm.781.805c.059 0 .137-.01.2-.017.074-.01.172-.023.291-.041.24-.036.574-.09 1.002-.16.858-.14 2.1-.352 3.725-.633l-.17-.985c-1.625.28-2.864.491-3.717.632a72.63 72.63 0 0 1-1.257.195c-.077.01-.09.009-.074.009v1Zm5.204-.849c1.69-.242 3-.455 3.928-.637.462-.09.837-.176 1.12-.255.14-.04.266-.08.372-.123.095-.037.215-.092.313-.174l-.64-.768c.028-.023.03-.015-.043.013a2.914 2.914 0 0 1-.273.089c-.245.069-.59.148-1.042.237-.902.177-2.192.387-3.877.628l.142.99Zm5.674-1.146c.247-.151.395-.185.466-.185v-1c-.336 0-.672.139-.988.331l.522.854Zm.466-.185c-.077 0-.107-.026-.062-.002.034.017.09.052.172.113.162.122.383.316.666.591l.697-.716a8.326 8.326 0 0 0-.763-.675 2.275 2.275 0 0 0-.315-.203.878.878 0 0 0-.395-.108v1Zm.783.709c.365.342.621.621.783.84.178.241.184.334.184.318h1c0-.327-.182-.645-.38-.912a7.606 7.606 0 0 0-.903-.976l-.684.73Zm.967 1.158a.407.407 0 0 1 .025-.143l.002-.004v-.001c0 .001 0 .003-.002.004l-.006.012a4.753 4.753 0 0 1-.263.362l.785.62c.12-.154.219-.286.29-.395.035-.053.07-.11.097-.168.018-.037.072-.149.072-.287h-1Zm-.293.304c-.284.533-.633 1.675-1.052 3.349l.97.242c.426-1.702.749-2.716.964-3.12l-.882-.47Zm-1.05 3.342c-.837 3.16-1.833 5.534-2.972 7.153l.817.575c1.236-1.756 2.27-4.257 3.122-7.472l-.967-.256Zm-2.978 7.161c-.5.742-.966 1.27-1.395 1.61-.428.338-.79.466-1.097.466v1c.6 0 1.176-.254 1.716-.682.54-.426 1.074-1.046 1.605-1.835l-.83-.559Zm-2.492 2.076c-.038 0-.198-.02-.423-.456l-.888.459c.275.534.694.997 1.311.997v-1Zm-.433-.474c-.411-.72-1.086-1.495-1.995-2.325l-.674.739c.872.796 1.463 1.49 1.8 2.082l.87-.496Zm-2.012-2.34c-.038-.031-.05-.044-.046-.04a.414.414 0 0 1 .064.123c.01.032.021.08.021.137h-1c0 .126.044.221.07.268.028.052.06.093.085.122.05.059.11.112.165.159l.64-.768Zm.039.22a.408.408 0 0 1-.123.284.407.407 0 0 1-.283.123v-1a.593.593 0 0 0-.424.17.594.594 0 0 0-.17.424h1Zm-.406.407a.467.467 0 0 1-.115-.014l-.014-.004a57.022 57.022 0 0 1 1.009.422l.396-.918c-.344-.149-.609-.261-.792-.337a9.01 9.01 0 0 0-.302-.117.785.785 0 0 0-.048-.015c-.005-.001-.063-.017-.134-.017v1Zm.874.402c.377.168.708.299.99.389.273.087.535.146.76.146v-1c-.07 0-.215-.022-.457-.1a8.758 8.758 0 0 1-.885-.348l-.408.913Zm1.75.535c.679 0 1.285-.481 1.819-1.14.553-.683 1.128-1.68 1.729-2.969l-.907-.422c-.587 1.258-1.121 2.171-1.6 2.762-.497.614-.843.77-1.04.77v1Zm3.55-4.112c1.268-2.775 1.92-5.285 1.92-7.52h-1c0 2.045-.599 4.41-1.83 7.104l.91.416Zm1.92-7.52c0-.284-.057-.589-.256-.83-.214-.258-.515-.35-.807-.35v1c.044 0 .06.006.06.006a.066.066 0 0 1-.023-.018c-.006-.007 0-.003.008.027a.634.634 0 0 1 .017.164h1Zm-1.063-1.18c-.301 0-.912.07-1.789.198-.892.13-2.098.324-3.615.582l.168.986c1.514-.257 2.71-.45 3.591-.578.897-.13 1.43-.188 1.645-.188v-1Zm-5.409.781c-2.708.485-4.73.951-6.05 1.402l.324.946c1.243-.424 3.205-.88 5.903-1.364l-.177-.984Zm-6.092 1.419c-.293.13-.52.225-.684.286-.083.03-.143.05-.184.061-.052.015-.045.007-.006.007v1c.101 0 .2-.023.27-.042.08-.022.17-.052.267-.088.194-.072.444-.177.745-.312l-.408-.912Zm-.874.354c.05 0 .03.02-.08-.062a2.58 2.58 0 0 1-.4-.411l-.774.635c.193.234.383.43.571.573.18.136.414.265.683.265v-1Zm-.47-.458a4.393 4.393 0 0 1-.298-.434.799.799 0 0 1-.05-.1c-.01-.022.006.005.006.063h-1c0 .12.033.226.061.3.031.079.072.159.117.236.089.156.215.337.369.54l.796-.605Zm-.343-.471c0 .013.005-.062.122-.268.107-.187.277-.43.519-.732l-.78-.625c-.259.322-.464.61-.607.861-.133.232-.253.5-.253.764h1Zm.674-1.048c.942-1.507 1.642-2.745 2.092-3.71.225-.481.393-.906.497-1.269.1-.351.155-.695.106-.993l-.987.164c.013.078.006.25-.081.554a7.884 7.884 0 0 1-.441 1.122c-.425.91-1.1 2.11-2.034 3.602l.848.53Zm2.701-5.89c0-.033.004-.045.003-.043a.185.185 0 0 1-.032.062.28.28 0 0 1-.11.087.206.206 0 0 1-.08.02v-1c-.215 0-.45.079-.61.293a.956.956 0 0 0-.17.581h1Z"/></svg>
